UI/POI/SVG/mountain-pass_solid_16px.svg

<svg width="16" height="16" viewBox="0 0 16 16" fill="none" xmlns="http://www.w3.org/2000/svg">
<path d="M10.8 2.4L8.61 3.1L6.6 1L1 8.61V15H3.74L6.36 12.94C6.45562 12.8652 6.53295 12.7696 6.58613 12.6604C6.63931 12.5512 6.66695 12.4314 6.66695 12.31C6.66695 12.1886 6.63931 12.0688 6.58613 11.9596C6.53295 11.8504 6.45562 11.7548 6.36 11.68L5 10.38C4.84291 10.2646 4.71499 10.1141 4.62643 9.94047C4.53788 9.76684 4.49116 9.5749 4.49 9.38C4.52761 9.01493 4.69436 8.6753 4.96021 8.42228C5.22605 8.16927 5.57352 8.01952 5.94 8L9.31 7.61L9.73 8.06L6.73 8.69C6.60367 8.70527 6.4863 8.76311 6.39724 8.85399C6.30817 8.94488 6.25271 9.06339 6.24 9.19C6.24764 9.29256 6.2861 9.39041 6.35035 9.47072C6.41459 9.55103 6.50162 9.61004 6.6 9.64L10 11.12C10.4224 11.2649 10.7918 11.5327 11.0609 11.8891C11.3299 12.2454 11.4863 12.6741 11.51 13.12C11.51 13.12 11.36 14.32 11.28 15.01H15V8.7L10.8 2.4ZM6.74 3.17L7.6 4.07L8.21 4.7L9 4.43L10.18 4.05L11.47 6.05H4.69L6.74 3.17Z" fill="#0F1621"/>
</svg>

<svg xmlns="http://www.w3.org/2000/svg" width="16" height="16" viewBox="0 0 16 16"><rect width="16" height="16" style="fill:none"/><path d="M10.8,2.4l-2.19.7L6.6,1,1,8.61V15H3.74l2.62-2.06a.8.8,0,0,0,0-1.26L5,10.38a1.25,1.25,0,0,1-.51-1A1.54,1.54,0,0,1,5.94,8l3.37-.39.42.45-3,.63a.56.56,0,0,0-.49.5.51.51,0,0,0,.36.45L10,11.12a2.24,2.24,0,0,1,1.51,2s-.15,1.2-.23,1.89H15V8.7Zm-4.06.77.86.9.61.63L9,4.43l1.18-.38,1.29,2H4.69Z"/></svg>
